packages/ndla-icons/svg/action/HeartOutline.svg

<svg xmlns="http://www.w3.org/2000/svg" data-license="Apache License 2.0" data-source="Material Icons" width="24" height="24" viewBox="0 0 24 24"><path d="M12.1,18.55L12,18.65L11.89,18.55C7.14,14.24 4,11.39 4,8.5C4,6.5 5.5,5 7.5,5C9.04,5 10.54,6 11.07,7.36H12.93C13.46,6 14.96,5 16.5,5C18.5,5 20,6.5 20,8.5C20,11.39 16.86,14.24 12.1,18.55M16.5,3C14.76,3 13.09,3.81 12,5.08C10.91,3.81 9.24,3 7.5,3C4.42,3 2,5.41 2,8.5C2,12.27 5.4,15.36 10.55,20.03L12,21.35L13.45,20.03C18.6,15.36 22,12.27 22,8.5C22,5.41 19.58,3 16.5,3Z" /></svg>

<svg xmlns="http://www.w3.org/2000/svg" data-license="Apache License 2.0" data-source="Material Icons" viewBox="0 0 24 24">
  <path d="M12.1 18.6h-.2C7 14.2 4 11.4 4 8.5 4 6.5 5.5 5 7.5 5c1.5 0 3 1 3.6 2.4h1.8A4 4 0 0 1 16.5 5c2 0 3.5 1.5 3.5 3.5 0 2.9-3.1 5.7-7.9 10M16.5 3A6 6 0 0 0 12 5a6 6 0 0 0-4.5-2C4.5 3 2 5.4 2 8.5c0 3.8 3.4 6.9 8.6 11.5l1.4 1.4 1.4-1.4c5.2-4.6 8.6-7.7 8.6-11.5 0-3-2.4-5.5-5.5-5.5Z"/>
</svg>
